!!!!SEGMENT: pl-sa--l-1636--100_anonim--ojcze-boze.krn
!!!cenid: 17xx:807
!!!COM: Anonim
!!!COM-rismid: pe30004985
!!!CDT:
!!!CNT:
!!!OTL: Ojcze Boże
!!!PDT:
!!!AGN: Sacred
!!!SMS-siglum: PL-SA
!!!SMS-shelfmark: L 1636
!!!SMS-shelfwork: 100 W
!!!SMS-variant:
!!!SMS-altvar:
!!!NIFC-rismid: 1001087457
!!!URL-scan: http://repozytorium.nifc.pl/skany/pl-sa-nut--l1636
!!!ONB-nifc: 52r, skan 0043, s. 1-2
!!!AIN: 2 empty
!!!key:
**kern	**kern
*part2	*part1
*staff2	*staff1
*Iempty	*Iempty
*I"	*I"
*I'keyb	*I'keyb
*clefF4	*clefG2
*k[b-]	*k[b-]
*G:	*G:
*M2/2	*M2/2
*met(c|)	*met(c|)
=1	=1
!	!LO:TX:a:t=1
!	!LO:TX:a:t=P:problem= caudy z prawej strony
!LO:TX:a:t=P:problem= caudy z prawej strony	!LO:TX:i:b:t=Oycze Boze
4.GG/	4g/
.	4dd\
8AA/	.
8BB-/L	4.dd\
8AA/J	.
4GG/	.
.	16ee\LL
.	16dd\JJ
=2	=2
*	*^
2AA/	4.cc#X\	2ryy
.	16b-\LL	.
.	16a\JJ	.
8D/L	8dd\L	4ryy
8C#X/J	8ee\J	.
8D/L	4ff/	4dd\
8GG/J	.	.
=3	=3	=3
*^	*	*
!	!	!LO:N:vis=2	!
2A/	2AA/	4ee/	8dd\L
.	.	.	16cc#X\L
.	.	.	16b-\JJ
!	!	!LO:N:vis=4.	!
.	.	4cc#X/	8a\L
.	.	.	8g\J
2D/	2DD/	2dd/ 2a 2f#X	2ryy
!	!	!LO:N:vis=2	!
.	.	.	.
*v	*v	*	*
=4	=4	=4
!	!	!LO:TX:a:t=P:problem=brak kaudy
!	!	!LO:TX:a:t=f
1F 1D 1BB-	4.ff/	4.dd\ 4.b-\
.	8ee/	8cc\
*	*	*2\right
.	2dd/	2b-\
=5	=5	=5
!	!LO:TX:a:t=c	!
4FF/	4ee 4cc/	4a\
4BB-/	4dd/	4b-\
!LO:TX:a:t=P:problem= mixed beam	!	!
8FF/L	4cc/	4a\
8F#\J	.	.
!LO:TX:a:t=P:problem= mixed beam	!	!
8G\L	4b-/	4g\
8C/J	.	.
=6	=6	=6
*^	*	*
!	!	!LO:N:vis=2	!
2D/	2DD/	4a/	8g\L
.	.	.	16f\L
.	.	.	16e\JJ
.	.	4f#X/	8d\L
.	.	.	8c\J
!	!	!LO:N:n=3:acc=#	!
2G/ 2D 2GG/	2ryy	2g/ 2d 2Bn	2ryy
!!LO:LB:g=original
=7|!|:	=7|!|:	=7|!|:	=7|!|:
[>2F/	2FF/	2cc 2a/	1f
2F] 2D/ 2BB-	2ryy	2dd 2b-/	.
*v	*v	*	*
=8	=8	=8
8D/L	4a/	4f#\
8DD/J	.	.
!LO:TX:a:t=P:problem= mixed beam	!	!
8G\L	4b-/	4g\
8GG/J	.	.
!LO:TX:a:t=P:problem= mixed beam	!	!
8F\L	4cc/	4a\
8FF/J	.	.
!LO:TX:a:t=P:problem= mixed beam	!	!
8G\L	4b-/	4g\
8GG/J	.	.
=9	=9	=9
*^	*	*
[>2F/	8FF/L	4.cc/	2a\
.	8GG/	.	.
.	8AA/	.	.
.	8FF/J	8ee-X/	.
2F/] 2D 2BB-/	2ryy	2dd 2b-/	2f\
*v	*v	*	*
=10	=10	=10
1F 1D 1BB-	4.ff/	2b-\
.	8ee-X/	.
.	2dd/ 2b-	2ryy
=11	=11	=11
*^	*	*
2F/	4FF/	4cc/	4a\
.	4BB-/	4dd/	4b-\
!LO:TX:a:t=P:problem= mixed beam	!	!	!
8FF/L	2ryy	4cc/	4a\
8F#X\J	.	.	.
!LO:TX:a:t=P:problem= mixed beam	!	!	!
8G\L	.	4b-/	[<4g\
8C/J	.	.	.
=12	=12	=12	=12
!	!	!LO:N:vis=2	!
2D/	2DD/	4a/	8g\L]
.	.	.	16f#X\L
.	.	.	16e\JJ
.	.	4f#X/	8d\L
.	.	.	8c\J
!	!	!LO:TX:a:t=P:problem=utwór kończy się kreską taktową z podwójną repetycją	!
!LO:N:n=3:acc=#	!	!LO:N:n=3:acc=#	!
2G 2D/ 2BBn 2GG/	2ryy	2g/ 2d 2Bn	2ryy
*v	*v	*	*
*	*v	*v
==	==
*-	*-
!!!system-decoration: s1,s2
!!!RDF**kern: > = above
!!!RDF**kern: < = below
!!!EED: Mateusz Mrugas
!!!EEV: 2020-12-10
!!!ENC: Berenika Jozajtis
!!!END: 2020-06-13
